X:0
T:Sleep Soond i da Mornin
G:Shetland reel
M:4/4
L:1/8
Q:1/2=112
K:ADor
BG|Aa-ag a2ef|gedB GABG|Aa-ag a2ef|gedB A2BG|
   Aa-ag a2ef|gedB GABG|Aa-ag a2ef|gedB A3 ||
 B|cAeA  cAeA|BcdB G3G |cAeA  cAeA|BAGB A3B |
   cAeA  cAeA|BcdB G3B |ABcd  efga|gedB A2 |]

It was always one of the commonest modes for religious music, and not
just in Catholic Europe, as in this 16th century Scottish psalm tune,
which must be a good candidate to be the most-sung tune in Scottish
history:

